X:38
T:YNGMNDM3- The Young Man's Dream
S:from Cooke's Selection', c 1795 & Hime's, c 1805
Q:1/4=120
L:1/4
M:3/4
K:G
G3/4A/4Be|d/A/BE3/4F/4|G/A/B/e/d/c/|B/A/G2::d/B/gf|e/^d/eB|\
d/B/gf|e/^d/e3/2 f/|g/f/ed|B/A/BE3/4F/4|G/A/B/e/d/c/|B/A/G2:|]

